src/dsmComponents/Icons/settings-gear-16px.svg

<svg width="16" height="16" xmlns="http://www.w3.org/2000/svg" xmlns:xlink="http://www.w3.org/1999/xlink"><defs><path d="M13.3 5.2l1.1-2.1L13 1.7l-2.1 1.1c-.3-.2-.7-.3-1.1-.4L9 0H7l-.8 2.3c-.3.1-.7.2-1 .4L3.1 1.6 1.6 3.1l1.1 2.1c-.2.3-.3.7-.4 1L0 7v2l2.3.8c.1.4.3.7.4 1.1L1.6 13 3 14.4l2.1-1.1c.3.2.7.3 1.1.4L7 16h2l.8-2.3c.4-.1.7-.3 1.1-.4l2.1 1.1 1.4-1.4-1.1-2.1c.2-.3.3-.7.4-1.1L16 9V7l-2.3-.8c-.1-.3-.2-.7-.4-1zM8 11c-1.7 0-3-1.3-3-3s1.3-3 3-3 3 1.3 3 3-1.3 3-3 3z" id="settings-gear-16px_svg__a"/></defs><use fill="#737373" xlink:href="#settings-gear-16px_svg__a" fill-rule="evenodd"/></svg>

<?xml version="1.0" encoding="UTF-8"?>
<svg width="16px" height="16px" viewBox="0 0 16 16" version="1.1" xmlns="http://www.w3.org/2000/svg" xmlns:xlink="http://www.w3.org/1999/xlink">
    <!-- Generator: Sketch 59.1 (86144) - https://sketch.com -->
    <title>settings-gear-16px</title>
    <desc>Created with Sketch.</desc>
    <defs>
        <path d="M13.3,5.2 L14.4,3.1 L13,1.7 L10.9,2.8 C10.6,2.6 10.2,2.5 9.8,2.4 L9,0 L7,0 L6.2,2.3 C5.9,2.4 5.5,2.5 5.2,2.7 L3.1,1.6 L1.6,3.1 L2.7,5.2 C2.5,5.5 2.4,5.9 2.3,6.2 L0,7 L0,9 L2.3,9.8 C2.4,10.2 2.6,10.5 2.7,10.9 L1.6,13 L3,14.4 L5.1,13.3 C5.4,13.5 5.8,13.6 6.2,13.7 L7,16 L9,16 L9.8,13.7 C10.2,13.6 10.5,13.4 10.9,13.3 L13,14.4 L14.4,13 L13.3,10.9 C13.5,10.6 13.6,10.2 13.7,9.8 L16,9 L16,7 L13.7,6.2 C13.6,5.9 13.5,5.5 13.3,5.2 Z M8,11 C6.3,11 5,9.7 5,8 C5,6.3 6.3,5 8,5 C9.7,5 11,6.3 11,8 C11,9.7 9.7,11 8,11 Z" id="path-1"></path>
    </defs>
    <g id="Final" stroke="none" stroke-width="1" fill="none" fill-rule="evenodd">
        <g id="All-Nucleo-Icons" transform="translate(-319.000000, -5532.000000)">
            <g id="Solo/Nucleo/16px/settings-gear" transform="translate(315.000000, 5528.000000)">
                <g id="settings-gear" transform="translate(4.000000, 4.000000)">
                    <g id="Colour/Default-Colour">
                        <mask id="mask-2" fill="white">
                            <use xlink:href="#path-1"></use>
                        </mask>
                        <g id="Mask" fill-rule="nonzero"></g>
                        <g id="colour/neutral/chia" mask="url(#mask-2)" fill="#737373">
                            <g transform="translate(-24.000000, -24.000000)" id="Colour">
                                <rect x="0" y="0" width="64" height="64"></rect>
                            </g>
                        </g>
                    </g>
                </g>
            </g>
        </g>
    </g>
</svg>
